X:2540
T:Cantar de Ronda (CT 028)
R:Ronda
C:Tradicional
S:Música Tradicional Asturiana, (C) Tello & Tito. Asturies, 2001.
S:http://pagina.de/MusTradAst <telloytito@asturies.org>
N:Canción de Ronda, transcrita en Llanuces, ayuntamiento de Quirós.
O:Llanuces (Quirós)
A:Asturies
Z:Cancioneru de Torner 028
M:3/8
L:1/8
Q:3/8=58
W:El cortejar es de majos, si, si,
W:y el lograr de fortunosos;
W:cuidado no te la quiten, si, si,
W:la niña de ente los ojos.
K:C
|GAA|ddd|^cA=c|c3|ddd|^cA=c|{A}(B-B/c//B//A/G//A//)|G2 z|
GAA|ddd|^cA=c|c3|ddd|^cA=c|{A}(B-B/c//B//A/G//A//)|G2 z||


